X:1
T:The Joyful Song
T:Adam Geibel
T:The Joyful Song
T:Public Domain
T:Public Domain
T:Public Domain
C:Adam Geibel
Z:Public Domain
%%score ( 1 2 ) ( 3 4 )
L:1/8
M:4/4
K:Bb
V:1 treble 
V:2 treble 
V:3 bass 
V:4 bass 
V:1
 F2 | [DB]3 [DA] [DB]2 [Dc]2 | [EA]4 [EF]2 [CF]2 | [FB]3 [FA] [FB]2 [Fc]2 | [Fd]6 [Fd]2 | %5
w: 1.~Be-|a roy- al ar-|my, With ban-|ner, sword and shield,|Are march-|
w: 2.~And|the foe, ad- vanc-|ing, That val-|iant host as- sails,|And yet|
w: 3.~Oh,|the war is end-|ed, When strife|and con- flict cease,|When all|
 [Fc]3 [Fd] [Fc]2 [=EA]2 | (A3 B) [Fc]2 F2 | [FG]2 [FB]2 [FA]2 [=EG]2 | F6 F2 | %9
w: ing forth to con-|quer, * On life’s|tle- field; Its ranks|are filled|
w: they nev- er fal-|ter, * Their cour-|er fails; Their lead-|er calls,|
w: are safe- ly ga-|thered * With- in|of peace, Be- fore|the King|
 [Ec]3 [D=B] [Ec]2 [Fd]2 | [DB]4 [DF]2 F2 | G3 A B2 [Gc]2 | [^Fd]6 [Fd]2 | [Fd]3 [Fd] [Fe]2 [Fd]2 | %14
w: diers, U- nit- ed,|bold and strong,|fol- lowed their com-|sing their|joy- ful song. *|
w: ful!” They pass the|word a- long,|see His sig- nal|shout the|joy- ful song. Vic-|
w: nal, That vast and|might- y throng|praise His name for-|this shall|be their song. *|
 [=Ec]4 [EG]2 [EG]2 | [EA]3 [EG] [EF]2 [Ec]2 | [DB]6 z2 ||"^Refrain" F3"^In Unison" F F4 | %18
w: ||||
w: to- ry, vic-|to- ry, Thro’ Him|that|re- deemed us!|
w: ||||
 F3 F F2 F2 | F2 d2 c2 B2 | (A3 G [A,EF]4) | F3 F F4 | F3 F F2 F2 | [A,EF]2 [EGe]2 [EAd]2 [EAc]2 | %24
w: ||||||
w: to- ry, vic- to-|Thro’ Je- sus Christ|Lord! * *|to- ry, vic-|ry, vic- to- ry,|Je- sus Christ our|
w: ||||||
 [DFBd]6 z2 |"^Harmony" [FB]3 [FB] [FB]4 | [Fd]3 [Fd] [Fd]4 | [Ef]3 [Ee] [Ee]4- | [Ee]4 [EG]4 | %29
w: |||||
w: Lord!|||||
w: |||||
 [DF]4 [Fd]4 | [Ec]6 [DB]2 | D4 G4 | [FB]6 |] %33
w: ||||
w: ||||
w: ||||
V:2
 F2 | x8 | x8 | x8 | x8 | x8 | F4 F2 x2 | x8 | F6 F2 | x8 | x6 F2 | G3 A B2 x2 | x8 | x8 | x8 | %15
w: hold!||||||great bat-||with sol-||Who|mand- er, And||||
w: now||||||age nev-||“Be faith-||They|flash- ing, And||||
w: when||||||the vale||e- ter-||Shall|ev- er, And||||
 x8 | x8 || [B,D]8 | [B,D]8 | [B,D]8 | [A,E]4 x4 | [A,E]8 | [A,E]8 | x8 | x8 | x8 | x8 | x8 | x8 | %29
w: ||||||||||||||
w: ||Vic-|ry,|our|Vic-|to-|Thro’|||||||
w: ||||||||||||||
 x8 | x8 | B8 | x6 |] %33
w: ||||
w: ||||
w: ||||
V:3
 F,2 | [B,,F,]3 [B,,F,] [B,,F,]2 [B,,F,]2 | [C,F,]4 [F,A,]2 [E,A,]2 | %3
 [D,B,]3 [E,C] [D,B,]2 [C,A,]2 | [B,,B,]6 B,2 | [A,C]3 B, [A,C]2 [G,C]2 | (F,3 G,) [A,C]2 [A,C]2 | %7
 [B,D]2 [G,D]2 C2 [B,,B,]2 | [F,A,]6 F,2 | [F,A,]3 [F,^G,] [F,A,]2 [F,A,]2 | %10
 [B,,B,]4 [B,,B,]2 F,2 | G,3 A, B,2 [E,G,]2 | [D,A,]6 [D,A,]2 | [G,=B,]3 [G,B,] [G,B,]2 [G,B,]2 | %14
 [C,C]4 [C,C]2 [C,C]2 | [F,C]3 [F,B,] [F,A,]2 [F,A,]2 | [B,,B,]6 z2 || B,,4 F,,4 | B,,4 F,,4 | %19
 B,,4 F,,4 | C,4 F,,4 | C,4 F,,4 | C,4 F,,4 | [C,F,]4 [F,,F,]4 | [B,,F,]6 z2 | %25
 [B,D]3 [B,D] [B,D]4 | [_A,B,]3 [A,B,] [A,B,]4 | [G,B,]3 [G,B,] [G,B,]4- | [G,B,]4 [E,B,]4 | %29
 [F,B,]4 [F,B,]4 | [F,A,]6 [B,,B,]2 | B,4 E4 | [B,,D]6 |] %33
V:4
 F,2 | x8 | x8 | x8 | x6 B,2 | x3 B, x4 | C4 x4 | x4 C2 x2 | x6 F,2 | x8 | x6 F,2 | G,3 A, B,2 x2 | %12
 x8 | x8 | x8 | x8 | x8 || F,8 | F,8 | F,8 | F,8 | F,8 | F,8 | x8 | x8 | x8 | x8 | x8 | x8 | x8 | %30
 x8 | B,,8 | x6 |] %33

